X:6439
T:TawnyGate Corner
O:england
M:6/8
L:1/8
S:Armitt MS
N:See 'Fill the Tankard"
K:A major
g|a2ag2e|fga g2e|a2f ecA|B3B2g|a2ag2e|fga g2e|a2f edc|A3A2:||:d|c2Ac2e|
fgag2e|a2f ecA|B3B2d|c2Ac2e|fga g2e fa f edc|A3A2:||


